!!!!SEGMENT: pl-wtm--r-995--001-003_krogulski-jozef-wladyslaw--msza-pasterska-graduale.krn
!!!cenid: 18xx:2085
!!!COM: Krogulski, Józef Władysław
!!!COM-rismid: pe30001797
!!!CDT: 1815/10/04-1842/01/09
!!!CNT: Polish
!!!OPR: Msza pasterska
!!!OTL: Graduale
!!!OMV: 003
!!!PDT:
!!!AGN: Sacred; Mass
!!!SMS-siglum: PL-Wtm
!!!SMS-shelfmark: R 995
!!!SMS-shelfwork: 001-003 M
!!!SMS-variant:
!!!SMS-altvar:
!!!NIFC-rismid: 1001083272
!!!URL-scan: http://repozytorium.nifc.pl/skany/pl-wtm-nut--r995
!!!ONB-nifc: UWAGA: części Mszy: 1. Kyrie, 2. Gloria, 3. Graduale, 4. Credo, 5. Offertorium, 6. Sanctus, 7. Benedictus, 8. Agnus Dei, 9. Dona nobis
!!!OMD: Allegretto.
**kern	**kern	**dynam	**kern	**text	**dynam	**kern	**text	**dynam	**kern	**text	**dynam	**kern	**text	**dynam
*part5	*part5	*part5	*part4	*part4	*part4	*part3	*part3	*part3	*part2	*part2	*part2	*part1	*part1	*part1
*staff6	*staff5	*	*staff4	*staff4	*	*staff3	*staff3	*	*staff2	*staff2	*	*staff1	*staff1	*
*	*I"[Organ]	*	*I"[Baſso]	*	*	*I"[Tenore]	*	*	*I"[Soprano 2.]	*	*	*I"[Soprano 1.]	*	*
*	*	*	*	*	*	*ITrd7c12	*	*	*	*	*	*	*	*
*clefF4	*clefG2	*	*clefF4	*	*	*clefG2	*	*	*clefG2	*	*	*clefG2	*	*
*k[b-]	*k[b-]	*	*k[b-]	*	*	*k[b-]	*	*	*k[b-]	*	*	*k[b-]	*	*
*F:	*F:	*	*F:	*	*	*F:	*	*	*F:	*	*	*F:	*	*
*M6/8	*M6/8	*	*M6/8	*	*	*M6/8	*	*	*M6/8	*	*	*M6/8	*	*
=1	=1	=1	=1	=1	=1	=1	=1	=1	=1	=1	=1	=1	=1	=1
*all\right	*all\right	*	*all\right	*	*	*all\right	*	*	*all\right	*	*	*all\right	*	*
*	*2\right	*	*	*	*	*	*	*	*	*	*	*	*	*
2.r	[2.ccc\	.	2.r	.	.	2.r	.	.	2.r	.	.	2.r	.	.
=2	=2	=2	=2	=2	=2	=2	=2	=2	=2	=2	=2	=2	=2	=2
4F\ 4G 4B- 4e	8ccc\L]	.	2.r	.	.	2.r	.	.	2.r	.	.	2.r	.	.
.	8ddd\	.	.	.	.	.	.	.	.	.	.	.	.	.
8F\ 8G 8B- 8e	8ccc\J	.	.	.	.	.	.	.	.	.	.	.	.	.
*rep	*	*	*	*	*	*	*	*	*	*	*	*	*	*
4F\ 4G 4B- 4e	8bb-\L	.	.	.	.	.	.	.	.	.	.	.	.	.
.	8gg\	.	.	.	.	.	.	.	.	.	.	.	.	.
8F\ 8G 8B- 8e	8aa\J	.	.	.	.	.	.	.	.	.	.	.	.	.
*Xrep	*	*	*	*	*	*	*	*	*	*	*	*	*	*
=3	=3	=3	=3	=3	=3	=3	=3	=3	=3	=3	=3	=3	=3	=3
4F\ 4A 4c 4f	4ff\	.	2.r	.	.	2.r	.	.	2.r	.	.	4r	.	.
8F\ 8A 8c	16ee\LL	.	.	.	.	.	.	.	.	.	.	8r	.	.
.	16dd\JJ	.	.	.	.	.	.	.	.	.	.	.	.	.
!	!	!	!	!	!	!	!	!	!	!	!	!	!	!LO:DY:b:rj
4F\ 4A 4c	[>4.cc\	.	.	.	.	.	.	.	.	.	.	[4.cc\	Ju-	p
8F\ 8A 8c	.	.	.	.	.	.	.	.	.	.	.	.	.	.
=4	=4	=4	=4	=4	=4	=4	=4	=4	=4	=4	=4	=4	=4	=4
4F\ 4G 4B- 4e	8cc\]	.	2.r	.	.	2.r	.	.	2.r	.	.	8cc\]	.	.
.	8r	.	.	.	.	.	.	.	.	.	.	8dd\	-stus	.
8F\ 8G 8B- 8e	8r	.	.	.	.	.	.	.	.	.	.	8cc\	ut	.
4F\ 4G 4B- 4e	4r	.	.	.	.	.	.	.	.	.	.	8b-/	pal-	.
.	.	.	.	.	.	.	.	.	.	.	.	8g/	-ma	.
8F\ 8G 8B- 8e	8r	.	.	.	.	.	.	.	.	.	.	8a/	flo-	.
=5	=5	=5	=5	=5	=5	=5	=5	=5	=5	=5	=5	=5	=5	=5
4F\ 4A 4f	2.r	.	2.r	.	.	2.r	.	.	2.r	.	.	(4f/	-re-	.
8F\ 8A 8c	.	.	.	.	.	.	.	.	.	.	.	8dd\)	.	.
4F\ 4A 4c	.	.	.	.	.	.	.	.	.	.	.	4cc\	-bit	.
8F\ 8A 8c	.	.	.	.	.	.	.	.	.	.	.	8cc\	ut	.
=6	=6	=6	=6	=6	=6	=6	=6	=6	=6	=6	=6	=6	=6	=6
4F\ 4G 4B- 4e	2.r	.	2.r	.	.	2.r	.	.	2.r	.	.	8cc\L	pal-	.
.	.	.	.	.	.	.	.	.	.	.	.	8b-\	.	.
8F\ 8G 8B- 8e	.	.	.	.	.	.	.	.	.	.	.	8a\J	.	.
4F\ 4G 4B- 4e	.	.	.	.	.	.	.	.	.	.	.	8g/L	-ma	.
.	.	.	.	.	.	.	.	.	.	.	.	8a/J	.	.
8F\ 8G 8B- 8e	.	.	.	.	.	.	.	.	.	.	.	8g/	flo-	.
=7	=7	=7	=7	=7	=7	=7	=7	=7	=7	=7	=7	=7	=7	=7
4F\ 4A 4c 4f	4r	.	4r	.	.	4r	.	.	4r	.	.	4.f/	-re-	.
8F\ 8A 8c	8r	.	8r	.	.	8r	.	.	8r	.	.	.	.	.
!	!	!	!	!	!LO:DY:b	!	!	!LO:DY:b	!	!	!LO:DY:b	!	!	!
4F\ 4A 4c	[>4.ccc\	.	8r	.	p	8r	.	p	8r	.	p	8f/	-bit	.
.	.	.	8F\	.	.	8c\	si-	.	8a/	.	.	8cc\	si-	.
8F\ 8A 8c	.	.	8F\	.	.	8c\	-cut	.	8a/	.	.	8cc\	-cut	.
=8	=8	=8	=8	=8	=8	=8	=8	=8	=8	=8	=8	=8	=8	=8
4F\ 4G 4B- 4e	8ccc\L]	.	4.F\	.	.	4.B-\	ce-	.	4.g/	.	.	4.cc\	ce-	.
.	8ddd\	.	.	.	.	.	.	.	.	.	.	.	.	.
8F\ 8G 8B- 8e	8ccc\J	.	.	.	.	.	.	.	.	.	.	.	.	.
4F\ 4G 4B- 4e	8bb-\L	.	4F\	.	.	4B-\	-drus	.	4g/	.	.	4cc\	-drus	.
.	8gg\	.	.	.	.	.	.	.	.	.	.	.	.	.
8F\ 8A 8c 8f	8aa\J	.	8F\	.	.	8c\	Li-	.	8a/	.	.	8cc\	Li-	.
!!LO:LB:g=original
=9	=9	=9	=9	=9	=9	=9	=9	=9	=9	=9	=9	=9	=9	=9
4F\ 4A 4c	4ff\	.	4.F\	.	.	4.A/	.	.	4.f/	.	.	4.cc\	-ba-	.
8F\ 8A 8c	16ee\LL	.	.	.	.	.	.	.	.	.	.	.	.	.
.	16dd\JJ	.	.	.	.	.	.	.	.	.	.	.	.	.
4F\ 4A 4c	8cc\	.	8F\	.	.	8A/	.	.	8f/	.	.	8cc\	-ni	.
.	8r	.	8r	.	.	8r	.	.	8r	.	.	8r	.	.
8F\ 8A 8c	8r	.	8r	.	.	8r	.	.	8r	.	.	8r	.	.
=10	=10	=10	=10	=10	=10	=10	=10	=10	=10	=10	=10	=10	=10	=10
4FF\ 4F	4G/ 4B- 4e	.	2.r	.	.	8c\	Ju-	.	2.r	.	.	2.r	.	.
.	.	.	.	.	.	8d\	-stus	.	.	.	.	.	.	.
8FF\ 8F	8G/ 8B- 8e	.	.	.	.	8c\	ut	.	.	.	.	.	.	.
4FF\ 4F	4G/ 4B- 4e	.	.	.	.	8B-/	pal-	.	.	.	.	.	.	.
.	.	.	.	.	.	8G/	-ma	.	.	.	.	.	.	.
8FF\ 8F	8G/ 8B- 8e	.	.	.	.	8A/	flo-	.	.	.	.	.	.	.
=11	=11	=11	=11	=11	=11	=11	=11	=11	=11	=11	=11	=11	=11	=11
*rep	*	*	*	*	*	*	*	*	*	*	*	*	*	*
4FF\ 4F	4A/ 4f	.	2.r	.	.	(4F/	-re-	.	2.r	.	.	2.r	.	.
8FF\ 8F	8A/ 8f	.	.	.	.	8d/)	.	.	.	.	.	.	.	.
4FF\ 4F	4A/ 4c 4f	.	.	.	.	4c\	-bit	.	.	.	.	.	.	.
8FF\ 8F	8A/ 8c 8f	.	.	.	.	8c\	ut	.	.	.	.	.	.	.
*Xrep	*	*	*	*	*	*	*	*	*	*	*	*	*	*
=12	=12	=12	=12	=12	=12	=12	=12	=12	=12	=12	=12	=12	=12	=12
*rep	*	*	*	*	*	*	*	*	*	*	*	*	*	*
4FF\ 4F	4G/ 4B- 4e	.	2.r	.	.	8c\L	pal-	.	2.r	.	.	2.r	.	.
.	.	.	.	.	.	8B-\	.	.	.	.	.	.	.	.
8FF\ 8F	8G/ 8B- 8e	.	.	.	.	8A\J	.	.	.	.	.	.	.	.
*	*rep	*	*	*	*	*	*	*	*	*	*	*	*	*
4FF\ 4F	4G/ 4B- 4e	.	.	.	.	8G/L	-ma	.	.	.	.	.	.	.
.	.	.	.	.	.	8A/J	.	.	.	.	.	.	.	.
8FF\ 8F	8G/ 8B- 8e	.	.	.	.	8G/	flo-	.	.	.	.	.	.	.
*Xrep	*Xrep	*	*	*	*	*	*	*	*	*	*	*	*	*
=13	=13	=13	=13	=13	=13	=13	=13	=13	=13	=13	=13	=13	=13	=13
4FF\ 4F	4A/ 4f	.	4r	.	.	4.F/	-re-	.	4r	.	.	4r	.	.
8FF\ 8F	8A/ 8c 8f	.	8r	.	.	.	.	.	8r	.	.	8r	.	.
4FF\ 4F	8A/L 8c 8f	.	8r	.	.	8F/	-bit	.	8r	.	.	8r	.	.
.	8f/ 8a	.	8F\	.	.	8A/	si-	.	8f/	.	.	8a/	si-	.
8DD/ 8D	8f/J 8bn	.	8D\	.	.	8G/	-cut	.	8f/	.	.	8bn/	-cut	.
=14	=14	=14	=14	=14	=14	=14	=14	=14	=14	=14	=14	=14	=14	=14
4CC/ 4C	4e\ 4cc	.	[<4.C/	.	.	[<4.G/	ce-	.	[<4.e/	.	.	[>4.cc\	ce-	.
8CC/ 8C	8e\ 8cc	.	.	.	.	.	.	.	.	.	.	.	.	.
8CC/L 8C	8e\L 8cc	.	8C/]	.	.	8G/]	.	.	8e/]	.	.	8cc\]	.	.
8FF/ 8F	8f\ 8a	.	8F\	.	.	8A/	-drus	.	8f/	.	.	8a/	-drus	.
8DD/J 8D	8f\J 8bn	.	8D\	.	.	8G/	li-	.	8f/	.	.	8bn\	Li-	.
=15	=15	=15	=15	=15	=15	=15	=15	=15	=15	=15	=15	=15	=15	=15
4CC/ 4C	4e\ 4cc	.	(<4.C/	.	.	(<4.G/	-ba-	.	(<4.e/	.	.	[>4.cc\	-ba-	.
8CC/ 8C	8e\ 8cc	.	.	.	.	.	.	.	.	.	.	.	.	.
4FF/ 4F	4f/ 4a	.	4F/	.	.	4A/)	.	.	4.f/)	.	.	8cc\L]	.	.
.	.	.	.	.	.	.	.	.	.	.	.	8a\	.	.
8DD/ 8D	8f/ 8bn	.	8D/)	.	.	8G/	.	.	.	.	.	8bn\J	.	.
=16	=16	=16	=16	=16	=16	=16	=16	=16	=16	=16	=16	=16	=16	=16
[<2.CC/ [>2.C	[<2.e\ [>2.cc	.	4C/	.	.	4G/	-ni	.	4e/	.	.	4cc\	-ni	.
.	.	.	8C/	.	.	8G/	mul-	.	8e/	.	.	8cc\	mul-	.
.	.	.	4C/	.	.	4G/	-ti-	.	4e/	.	.	4cc\	-ti-	.
.	.	.	8C/	.	.	8G/	-pli-	.	8e/	.	.	8cc\	-pli-	.
=17	=17	=17	=17	=17	=17	=17	=17	=17	=17	=17	=17	=17	=17	=17
2.CC/] 2.C]	2.e/] 2.cc]	.	4C/	.	.	4G/	-ca-	.	4e/	.	.	4cc\	-ca-	.
.	.	.	8C/	.	.	8G/	-bi-	.	8e/	.	.	8cc\	-bi-	.
.	.	.	4C/	.	.	4G/	-tur	.	4e/	.	.	4cc\	-tur	.
.	.	.	8C/	.	.	8G/	in	.	8e/	.	.	8ee\	in	.
!!LO:PB:g=original
=18	=18	=18	=18	=18	=18	=18	=18	=18	=18	=18	=18	=18	=18	=18
!	!	!	!	!	!	!	!	!	!	!	!	!LO:TX:a:t=Solo.	!	!
!	!	!	!	!	!LO:DY:b:rj	!	!	!LO:DY:b:rj	!	!	!LO:DY:b:rj	!	!	!LO:DY:b:rj
8GG\ 8G	8e/ 8cc	.	8GG/	.	f	8c\	do-	f	8e/	do-	f	8gg\L	do-	f
8r	8r	.	8r	.	.	8r	.	.	8r	.	.	16ff\L	.	.
.	.	.	.	.	.	.	.	.	.	.	.	16ee\	.	.
8r	8r	.	8r	.	.	8r	.	.	8r	.	.	16dd\	.	.
.	.	.	.	.	.	.	.	.	.	.	.	16cc\JJ	.	.
4r	4r	.	4r	.	.	4r	.	.	4r	.	.	16bn/LL	.	.
.	.	.	.	.	.	.	.	.	.	.	.	16cc/	.	.
.	.	.	.	.	.	.	.	.	.	.	.	16b/	.	.
.	.	.	.	.	.	.	.	.	.	.	.	16a/	.	.
8r	8r	.	8r	.	.	8r	.	.	8r	.	.	16g/	.	.
.	.	.	.	.	.	.	.	.	.	.	.	16f#X/JJ	.	.
=19	=19	=19	=19	=19	=19	=19	=19	=19	=19	=19	=19	=19	=19	=19
8GG\ 8G	8d\ 8f 8bn	.	8G\	.	.	8d\	-mo	.	8f/	-mo	.	16g\LL	.	.
.	.	.	.	.	.	.	.	.	.	.	.	16bn\	.	.
8r	8r	.	8r	.	.	8r	.	.	8r	.	.	16dd\	.	.
.	.	.	.	.	.	.	.	.	.	.	.	16b\	.	.
8r	8r	.	8r	.	.	8r	.	.	8r	.	.	16ffn\	.	.
.	.	.	.	.	.	.	.	.	.	.	.	16dd\JJ	.	.
4r	4r	.	4r	.	.	4r	.	.	4r	.	.	4aa\	.	.
8r	8r	.	8r	.	.	8r	.	.	8r	.	.	8gg\	-mo	.
=20	=20	=20	=20	=20	=20	=20	=20	=20	=20	=20	=20	=20	=20	=20
*2\right	*	*	*	*	*	*	*	*	*	*	*	*	*	*
!	!	!	!	!	!	!	!	!	!	!	!	!LO:TX:a:t=tutto	!	!
2.GG\ 2.G	4e\ 4cc	.	[>4.G\	.	.	(>4.c\	.	.	(<4.e/	Do-	.	(>4.cc\	Do-	.
.	8e\ 8cc	.	.	.	.	.	.	.	.	.	.	.	.	.
.	4g\ 4ee	.	4G\]	.	.	4G\)	.	.	4g/)	.	.	4ee\)	.	.
.	8f\ 8dd	.	8G\	.	.	8B\	.	.	8f/	-mi-	.	8dd\	-mi-	.
=21	=21	=21	=21	=21	=21	=21	=21	=21	=21	=21	=21	=21	=21	=21
[<2.CC/ [>2.C	4e\ 4cc	.	4C/	.	.	4c\	.	.	4e/	-ni	.	4cc\	-ni	.
.	8r	.	8C/	.	.	8r	.	.	8r	.	.	8r	.	.
.	4r	.	4C/	.	.	4r	.	.	4r	.	.	4r	.	.
.	8e\ 8cc	.	8C/	.	.	8c\	.	.	8e/	in	.	8cc\	in	.
=22	=22	=22	=22	=22	=22	=22	=22	=22	=22	=22	=22	=22	=22	=22
2.CC/_< 2.C_>	8g\L 8b-X	.	[<4.C/	.	.	8B-X\L	.	.	8g/L	Do-	.	[>4.cc\	Do-	.
.	8a\ 8cc	.	.	.	.	8c\J	.	.	8a/J	.	.	.	.	.
.	8g\J 8b-	.	.	.	.	8B-\	.	.	8g/	-mo	.	.	.	.
.	8f/L 8a	.	4C/]	.	.	8A\L	.	.	8f/L	Do-	.	4cc\]	.	.
.	8g/ 8b-	.	.	.	.	8B-\J	.	.	8g/J	.	.	.	.	.
.	8f/J 8a	.	8C/	.	.	8A\	.	.	8f/	-mi-	.	8cc\	-mo	.
=23	=23	=23	=23	=23	=23	=23	=23	=23	=23	=23	=23	=23	=23	=23
2.CC/_< 2.C_>	4e/ 4g	.	4C/	.	.	4G/	.	.	4e/	-ni	.	4cc\	Do-	.
.	8r	.	8r	.	.	8r	.	.	8r	.	.	8dd\	-mi-	.
.	4r	.	4r	.	.	4r	.	.	4r	.	.	4cc\	-ni	.
.	8e\ 8cc	.	8C/	.	.	8c\	.	.	8e/	in	.	8cc\	in	.
=24	=24	=24	=24	=24	=24	=24	=24	=24	=24	=24	=24	=24	=24	=24
2.CC/_< 2.C_>	8g/L 8b-	.	4C/	.	.	8B-\L	.	.	8g/L	do-	.	[>4.cc\	do-	.
.	8a/ 8cc	.	.	.	.	8c\J	.	.	8a/J	.	.	.	.	.
.	8g/J 8b-	.	8C/	.	.	8B-\	.	.	8g/	-mo	.	.	.	.
.	8f/L 8a	.	4C/	.	.	8A\L	.	.	8f/L	Do-	.	4cc\]	.	.
.	8g/ 8b-	.	.	.	.	8B-\J	.	.	8g/J	.	.	.	.	.
.	8f/J 8a	.	8C/	.	.	8A\	.	.	8f/	-mi-	.	8cc\	-mo	.
=25	=25	=25	=25	=25	=25	=25	=25	=25	=25	=25	=25	=25	=25	=25
8CC/] 8C]	8e/ 8g	.	8C/	.	.	8G/	.	.	8e/	-ni	.	8cc\L	Do-	.
8r	8r	.	8r	.	.	8r	.	.	8r	.	.	8ee\	.	.
8r	8r	.	8r	.	.	8r	.	.	8r	.	.	8dd\J	.	.
4r	4r	.	4r	.	.	4r	.	.	4r	.	.	[>4.cc\	.	.
8r	8r	.	8r	.	.	8r	.	.	8r	.	.	.	.	.
!!LO:LB:g=original
=26	=26	=26	=26	=26	=26	=26	=26	=26	=26	=26	=26	=26	=26	=26
!	!	!	!	!	!	!	!	!	!	!	!	!LO:TX:t=P:problem:brak zakończenia ligatury	!	!
2.r	2.r	.	2.r	.	.	2.r	.	.	2.r	.	.	8cc\L]	.	.
.	.	.	.	.	.	.	.	.	.	.	.	8gg\J	.	.
.	.	.	.	.	.	.	.	.	.	.	.	8ff\	.	.
.	.	.	.	.	.	.	.	.	.	.	.	4.ee\	-mi-	.
=27	=27	=27	=27	=27	=27	=27	=27	=27	=27	=27	=27	=27	=27	=27
[<2.C/	2.r	.	[<2.C/	Ju-	.	2.r	.	.	2.r	.	.	4.ee\	-ni	.
.	.	.	.	.	.	.	.	.	.	.	.	4r	.	.
.	.	.	.	.	.	.	.	.	.	.	.	8r	.	.
=28	=28	=28	=28	=28	=28	=28	=28	=28	=28	=28	=28	=28	=28	=28
8C/L]	2.r	.	8C/]	.	.	2.r	.	.	2.r	.	.	2.r	.	.
8D/	.	.	8D/	-stus	.	.	.	.	.	.	.	.	.	.
8C/J	.	.	8C/	ut	.	.	.	.	.	.	.	.	.	.
8BB-/L	.	.	8BB-/	pal-	.	.	.	.	.	.	.	.	.	.
8GG/	.	.	8GG/	-ma	.	.	.	.	.	.	.	.	.	.
8AA/J	.	.	8AA/	flo-	.	.	.	.	.	.	.	.	.	.
=29	=29	=29	=29	=29	=29	=29	=29	=29	=29	=29	=29	=29	=29	=29
2.FF/	4r	.	4.FF/	-re-	.	2.r	.	.	2.r	.	.	4r	.	.
.	8r	.	.	.	.	.	.	.	.	.	.	8r	.	.
.	4A/ 4f	.	8FF/	-bit	.	.	.	.	.	.	.	[>4.cc\	Ju-	.
.	.	.	8r	.	.	.	.	.	.	.	.	.	.	.
.	8A/ 8f	.	8r	.	.	.	.	.	.	.	.	.	.	.
=30	=30	=30	=30	=30	=30	=30	=30	=30	=30	=30	=30	=30	=30	=30
4FF/ 4F	4G/ 4B- 4e	.	2.r	.	.	2.r	.	.	2.r	.	.	8cc\]	.	.
.	.	.	.	.	.	.	.	.	.	.	.	8dd\	-stus	.
8FF/ 8F	8G/ 8B- 8e	.	.	.	.	.	.	.	.	.	.	8cc\	ut	.
4FF/ 4F	4G/ 4B- 4e	.	.	.	.	.	.	.	.	.	.	8b-\	pal-	.
.	.	.	.	.	.	.	.	.	.	.	.	8g/	-ma	.
8FF/ 8F	8G/ 8B- 8e	.	.	.	.	.	.	.	.	.	.	8a/	flo-	.
=31	=31	=31	=31	=31	=31	=31	=31	=31	=31	=31	=31	=31	=31	=31
*rep	*	*	*	*	*	*	*	*	*	*	*	*	*	*
4FF/ 4F	4A/ 4f	.	2.r	.	.	4r	.	.	2.r	.	.	(>4f/	-re-	.
8FF/ 8F	8A/ 8f	.	.	.	.	8r	.	.	.	.	.	8dd\	.	.
4FF/ 4F	4A/ 4c 4f	.	.	.	.	[>4.c\	Ju-	.	.	.	.	4cc\)	-bit	.
8FF/ 8F	8A/ 8c 8f	.	.	.	.	.	.	.	.	.	.	8cc\	ut	.
*Xrep	*	*	*	*	*	*	*	*	*	*	*	*	*	*
=32	=32	=32	=32	=32	=32	=32	=32	=32	=32	=32	=32	=32	=32	=32
*rep	*	*	*	*	*	*	*	*	*	*	*	*	*	*
4FF/ 4F	4G/ 4B- 4e	.	2.r	.	.	8c\]	.	.	2.r	.	.	8cc\L	pal	.
.	.	.	.	.	.	8d\	-stus	.	.	.	.	8b-\	.	.
8FF/ 8F	8G/ 8B- 8e	.	.	.	.	8c\	ut	.	.	.	.	8a\J	.	.
*	*rep	*	*	*	*	*	*	*	*	*	*	*	*	*
4FF/ 4F	4G/ 4B- 4e	.	.	.	.	8B-\	pal-	.	.	.	.	8g/L	ma	.
.	.	.	.	.	.	8c\	-ma	.	.	.	.	8a/J	.	.
8FF/ 8F	8G/ 8B- 8e	.	.	.	.	8B-\	flo-	.	.	.	.	8g/	flo-	.
*Xrep	*Xrep	*	*	*	*	*	*	*	*	*	*	*	*	*
=33	=33	=33	=33	=33	=33	=33	=33	=33	=33	=33	=33	=33	=33	=33
4FF/ 4F	4A/ 4f	.	4r	.	.	4A/	-re-	.	4r	.	.	4.f/	-re-	.
8FF/ 8F	8A/ 8f	.	8r	.	.	8A/	-bit	.	8r	.	.	.	.	.
4DD/ 4D	4f/ 4a	.	[>4.D\	.	.	[<4.A/	Ju-	.	[<4.f/	Ju-	.	8f/	-bit	.
.	.	.	.	.	.	.	.	.	.	.	.	8r	.	.
8DD/ 8D	8f/ 8a	.	.	.	.	.	.	.	.	.	.	8r	.	.
=34	=34	=34	=34	=34	=34	=34	=34	=34	=34	=34	=34	=34	=34	=34
[<2.DD/ [>2.D	8f/L 8a	.	8D\]	.	.	8A/]	.	.	8f/]	.	.	4r	.	.
.	8g/ 8b-	.	8D\	.	.	8B-/	-stus	.	8g/	-stus	.	.	.	.
.	8f/J 8a	.	8D\	.	.	8A/	ut	.	8f/	ut	.	8r	.	.
.	8e/L 8g	.	8D\	.	.	8G/	pal-	.	8e/	pal-	.	8r	.	.
.	8f/ 8a	.	8D\	.	.	8A/	-ma	.	8f/	-ma	.	8a/	si-	.
.	8e/J 8g	.	8D\	.	.	8G/	flo-	.	8e/	flo-	.	8a/	-cut	.
!!LO:PB:g=original
=35	=35	=35	=35	=35	=35	=35	=35	=35	=35	=35	=35	=35	=35	=35
!LO:TX:t=P:problem:brak zakończenia ligatury	!	!	!	!	!	!	!	!	!	!	!	!	!	!
2.DD/] 2.D]	4d/ 4f	.	4.D\	.	.	4.F/	-re-	.	4.d/	-re-	.	4.ff\	ce-	.
.	8d/ 8f	.	.	.	.	.	.	.	.	.	.	.	.	.
.	4d/ 4f	.	8D\	.	.	8F/	-bit	.	8d/	-bit	.	4ff\	-drus	.
.	.	.	8r	.	.	8r	.	.	8r	.	.	.	.	.
.	8d/ 8f	.	8r	.	.	8r	.	.	8r	.	.	8ff\	li-	.
=36	=36	=36	=36	=36	=36	=36	=36	=36	=36	=36	=36	=36	=36	=36
*	*^	*	*	*	*	*	*	*	*	*	*	*	*	*
*	*	*	*	*	*	*	*	*	*	*	*	*	*2\right	*	*
4.DD/ 4.D	4.g/	2.Bn\	.	4D\	.	.	4B\	.	.	4g/	si-	.	[>2.ff\	-ba-	.
.	.	.	.	8D\	.	.	8B\	.	.	8g/	-cut	.	.	.	.
4.DD-X/ 4.D-X	4.a-X/	.	.	8D-X\	.	.	8B\	.	.	8a-X/	ce-	.	.	.	.
.	.	.	.	8D-\	.	.	8B\	.	.	8a-/	-drus	.	.	.	.
.	.	.	.	8D-\	.	.	8B\	.	.	8a-/	Li-	.	.	.	.
*	*v	*v	*	*	*	*	*	*	*	*	*	*	*	*	*
=37	=37	=37	=37	=37	=37	=37	=37	=37	=37	=37	=37	=37	=37	=37
*	*	*	*	*	*	*2\right	*	*	*	*	*	*	*	*
[<2.CC/ [>2.C	2.c/ 2.f 2.an	.	[<2.C/	.	.	(<2.c\	.	.	(<2.an/	-ba-	.	4.ff\]	.	.
.	.	.	.	.	.	.	.	.	.	.	.	4aa\	.	.
.	.	.	.	.	.	.	.	.	.	.	.	8ff\	.	.
=38	=38	=38	=38	=38	=38	=38	=38	=38	=38	=38	=38	=38	=38	=38
2.CC/] 2.C]	2.B-X/ 2.d 2.g	.	2.C/]	.	.	2.B-X\)	.	.	2.g/)	.	.	8cc\L	.	.
.	.	.	.	.	.	.	.	.	.	.	.	8dd\	.	.
.	.	.	.	.	.	.	.	.	.	.	.	8cc\J	.	.
.	.	.	.	.	.	.	.	.	.	.	.	8b-\L	.	.
.	.	.	.	.	.	.	.	.	.	.	.	8g\	.	.
.	.	.	.	.	.	.	.	.	.	.	.	8cc\J	.	.
=39	=39	=39	=39	=39	=39	=39	=39	=39	=39	=39	=39	=39	=39	=39
4FF/ 4F	4A/ 4f	.	8C/	.	.	8A/	.	.	8f/	-ni	.	8a/	ni	.
.	.	.	8r	.	.	8r	.	.	8r	.	.	8r	.	.
!	!	!LO:DY:rj	!	!	!	!	!	!	!	!	!	!	!	!
8FF/ 8F	8A/ 8c 8f	f	8r	.	.	8r	.	.	8r	.	.	8r	.	.
!	!	!	!	!	!LO:DY:b:rj	!	!	!LO:DY:b:rj	!	!	!LO:DY:b:rj	!	!	!LO:DY:b:rj
4FF/ 4F	4A/ 4c 4f	.	8r	.	ff	8r	.	ff	8r	.	ff	8r	.	ff
.	.	.	8c\	.	.	8c\	.	.	8cc\	.	.	8cc\	Si-	.
8FF/ 8F	8A/ 8c 8f	.	8c\	.	.	8c\	.	.	8cc\	.	.	8cc\	-cut	.
=40	=40	=40	=40	=40	=40	=40	=40	=40	=40	=40	=40	=40	=40	=40
*rep	*	*	*	*	*	*	*	*	*	*	*	*	*	*
4FF/ 4F	4G/ 4B- 4e	.	8c\L	.	.	8c\L	.	.	8cc\L	.	.	8cc\L	ce-	.
.	.	.	8d\	.	.	8d\	.	.	8dd\	.	.	8dd\	.	.
8FF/ 8F	8G/ 8B- 8e	.	8c\J	.	.	8c\J	.	.	8cc\J	.	.	8cc\J	.	.
4FF/ 4F	4G/ 4B- 4e	.	8B-\L	.	.	8B-\L	.	.	8b-\L	.	.	8b-/L	-drus	.
.	.	.	8G\J	.	.	8G\J	.	.	8g\J	.	.	8g/J	.	.
8FF/ 8F	8G/ 8B- 8e	.	8A\	.	.	8A\	.	.	8a\	.	.	8a/	Li-	.
*Xrep	*	*	*	*	*	*	*	*	*	*	*	*	*	*
=41	=41	=41	=41	=41	=41	=41	=41	=41	=41	=41	=41	=41	=41	=41
*rep	*	*	*	*	*	*	*	*	*	*	*	*	*	*
4FF/ 4F	4A/ 4c 4f	.	(>4F\	.	.	(>4F/	.	.	(>4f/	.	.	(>4f/	-ba-	.
8FF/ 8F	8A/ 8c 8f	.	8d\)	.	.	8d\)	.	.	8dd\)	.	.	8dd\)	.	.
4FF/ 4F	4A/ 4c 4f	.	8c\	.	.	8c\	.	.	8cc\	.	.	8cc\	-ni	.
.	.	.	8c\	.	.	8c\	.	.	8cc\	.	.	8cc\	si-	.
8FF/ 8F	8A/ 8c 8f	.	8c\	.	.	8c\	.	.	8cc\	.	.	8cc\	-cut	.
*Xrep	*	*	*	*	*	*	*	*	*	*	*	*	*	*
=42	=42	=42	=42	=42	=42	=42	=42	=42	=42	=42	=42	=42	=42	=42
*rep	*	*	*	*	*	*	*	*	*	*	*	*	*	*
4FF/ 4F	4G/ 4B- 4e	.	8c\L	.	.	8c\L	.	.	8cc\L	.	.	8cc\L	ce-	.
.	.	.	8B-\	.	.	8B-\	.	.	8b-\	.	.	8b-\	.	.
8FF/ 8F	8G/ 8B- 8e	.	8A\J	.	.	8A\J	.	.	8a\J	.	.	8a\J	.	.
4FF/ 4F	4G/ 4B- 4e	.	8G\L	.	.	8G/L	.	.	8g/L	.	.	8g/L	-drus	.
.	.	.	8A\J	.	.	8A/J	.	.	8a/J	.	.	8a/J	.	.
8FF/ 8F	8G/ 8B- 8e	.	8G\	.	.	8G/	.	.	8g/	.	.	8g/	Li-	.
*Xrep	*	*	*	*	*	*	*	*	*	*	*	*	*	*
!!LO:LB:g=original
=43	=43	=43	=43	=43	=43	=43	=43	=43	=43	=43	=43	=43	=43	=43
4FF/ 4F	4A/ 4f	.	4.F\	.	.	4.F/	ba-	.	[<4.f/	.	.	[<4.f/	-ba-	.
8FF/ 8F	8A/ 8f	.	.	.	.	.	.	.	.	.	.	.	.	.
8FF\L 8F	8A/L 8f	.	8F\	.	.	8F/	-ni	.	8f/]	.	.	8f/]	ni	.
!	!	!	!	!	!LO:DY:b:rj	!	!	!LO:DY:b:rj	!	!	!LO:DY:b:rj	!	!	!LO:DY:b:rj
8BB-\ 8B-	8d/ 8f	.	8A\	.	p	8d\	si-	p	8d/	.	p	8f/	si-	p
8GG\J 8G	8e/J 8b-	.	8G\	.	.	8c\	-cut	.	8e/	.	.	8b-\	-cut	.
=44	=44	=44	=44	=44	=44	=44	=44	=44	=44	=44	=44	=44	=44	=44
4FF\ 4F	4f/ 4a	.	[>4.F\	.	.	[>4.c\	ce-	.	[<4.f/	.	.	[<4.a/	ce-	.
8FF\ 8F	8f/ 8a	.	.	.	.	.	.	.	.	.	.	.	.	.
8FF\L 8F	8f/L 8a	.	8F\]	.	.	8c\]	.	.	8f/]	.	.	8a/]	.	.
8BB-\ 8B-	8d/ 8b-	.	8B-\	.	.	8d\	-drus	.	8d/	.	.	8b-/	-drus	.
8GG\J 8G	8e/J 8b-	.	8G\	.	.	8c\	Li	.	8e/	.	.	8b-/	Li-	.
=45	=45	=45	=45	=45	=45	=45	=45	=45	=45	=45	=45	=45	=45	=45
[<4.FF/ [>4.F	[<4.f/ [>4.a	.	(>4.F\	.	.	(>4.c\	.	.	(4.f/	.	.	(<4.a/	-ba-	.
8FF\L] 8F]	8f/L] 8a]	.	8F\L	.	.	8c\L	.	.	8f/L	.	.	8a/L	.	.
8BB-\ 8B-	8d/ 8b-	.	8B-\	.	.	8d\	.	.	8d/	.	.	8b-/	.	.
8GG\J 8G	8e/J 8cc	.	8G\J)	.	.	8c\J)	.	.	8e/J)	.	.	8cc/J)	.	.
=46	=46	=46	=46	=46	=46	=46	=46	=46	=46	=46	=46	=46	=46	=46
[<2.FF/ [>2.F	[<2.c/ [>2.f [>2.a	.	4F\	.	.	4c\	.	.	4f/	.	.	4a/	ni	.
.	.	.	8F\	.	.	8c\	.	.	8f/	.	.	8a/	mul-	.
.	.	.	4F\	.	.	4c\	.	.	4f/	.	.	4a/	-ti-	.
.	.	.	8F\	.	.	8c\	.	.	8f/	.	.	8a/	-pli-	.
=47	=47	=47	=47	=47	=47	=47	=47	=47	=47	=47	=47	=47	=47	=47
2.FF/] 2.F]	2.c/_< 2.f_> 2.a_>	.	4F\	.	.	4c\	.	.	4f/	.	.	4a/	-ca-	.
.	.	.	8F\	.	.	8c\	.	.	8f/	.	.	8a/	-bi-	.
.	.	.	4F\	.	.	4c\	.	.	4f/	.	.	4a/	-tur	.
.	.	.	8F\	.	.	8c\	.	.	8a/	.	.	8cc\	in	.
=48	=48	=48	=48	=48	=48	=48	=48	=48	=48	=48	=48	=48	=48	=48
!	!	!	!	!	!	!	!	!	!	!	!	!LO:TX:a:t=Solo.	!	!
8CC/ 8C	8c/] 8f] 8a]	.	8C/	.	.	8c\	do-	.	8a/	do-	.	16ff\LL	do-	.
.	.	.	.	.	.	.	.	.	.	.	.	16aa\	.	.
8r	8r	.	8r	.	.	8r	.	.	8r	.	.	16gg\	.	.
.	.	.	.	.	.	.	.	.	.	.	.	16ff\	.	.
8r	8r	.	8r	.	.	8r	.	.	8r	.	.	16ee\	.	.
.	.	.	.	.	.	.	.	.	.	.	.	16dd\JJ	.	.
4r	4r	.	4r	.	.	4r	.	.	4r	.	.	16cc\LL	.	.
.	.	.	.	.	.	.	.	.	.	.	.	16bn\	.	.
.	.	.	.	.	.	.	.	.	.	.	.	16dd\	.	.
.	.	.	.	.	.	.	.	.	.	.	.	16cc\	.	.
8r	8r	.	8r	.	.	8r	.	.	8r	.	.	16b-X\	.	.
.	.	.	.	.	.	.	.	.	.	.	.	16a\JJ	.	.
=49	=49	=49	=49	=49	=49	=49	=49	=49	=49	=49	=49	=49	=49	=49
*	*	*	*	*	*	*	*	*	*	*	*	*^	*	*
8CC/ 8C	8c/ 8e 8g 8b-	.	8C/	.	.	8B-\	-mo	.	8e/	-mo	.	16g\LL	4ryy	.	.
.	.	.	.	.	.	.	.	.	.	.	.	16b-\	.	.	.
8r	8r	.	8r	.	.	8r	.	.	8r	.	.	16cc\	.	.	.
.	.	.	.	.	.	.	.	.	.	.	.	16ee\	.	.	.
8r	8r	.	8r	.	.	8r	.	.	8r	.	.	16gg\	8ryy	.	.
.	.	.	.	.	.	.	.	.	.	.	.	16ee\JJ	.	.	.
4r	4r	.	4r	.	.	4r	.	.	4r	.	.	4bb-/	4cc\	.	.
8r	8r	.	8r	.	.	8r	.	.	8r	.	.	8ee/	8ee\	-mo	.
*	*	*	*	*	*	*	*	*	*	*	*	*v	*v	*	*
=50	=50	=50	=50	=50	=50	=50	=50	=50	=50	=50	=50	=50	=50	=50
*	*	*	*2\right	*	*	*	*	*	*	*	*	*	*	*
!	!	!	!	!	!	!	!	!	!	!	!	!LO:TX:a:t=tutti	!	!
!	!	!	!	!	!LO:DY:b:rj	!	!	!LO:DY:b:rj	!	!	!LO:DY:b:rj	!	!	!LO:DY:b:rj
2.r	2.r	.	2.F\	.	p	2.c\	.	p	2.a/	do	p	2.ff\	do-	p
!!LO:PB:g=original
=51	=51	=51	=51	=51	=51	=51	=51	=51	=51	=51	=51	=51	=51	=51
2.r	2.r	.	2.BB-/	.	.	2.d\	mi-	.	2.b-/	.	.	2.ff\	-mi-	.
=52	=52	=52	=52	=52	=52	=52	=52	=52	=52	=52	=52	=52	=52	=52
!	!	!LO:DY:rj	!	!	!	!	!	!	!	!	!	!	!	!
[<2.F\ [>2.A [>2.c	8ccc\L	p	8F\	.	.	8c\	-ni	.	8a/	.	.	8ff\	-ni	.
.	8ddd\	.	8r	.	.	8r	.	.	8r	.	.	8r	.	.
.	8ccc\J	.	8r	.	.	8r	.	.	8r	.	.	8r	.	.
.	8aa\L	.	4r	.	.	4r	.	.	4r	.	.	4r	.	.
.	8ee\	.	.	.	.	.	.	.	.	.	.	.	.	.
.	8ff\J	.	8r	.	.	8r	.	.	8r	.	.	8r	.	.
=53	=53	=53	=53	=53	=53	=53	=53	=53	=53	=53	=53	=53	=53	=53
4.F\] 4.A] 4.c]	8cc\L	.	2.r	.	.	2.r	.	.	2.r	.	.	2.r	.	.
.	8dd\	.	.	.	.	.	.	.	.	.	.	.	.	.
.	8cc\J	.	.	.	.	.	.	.	.	.	.	.	.	.
4r	8a/L	.	.	.	.	.	.	.	.	.	.	.	.	.
.	8e/	.	.	.	.	.	.	.	.	.	.	.	.	.
8r	8f/J	.	.	.	.	.	.	.	.	.	.	.	.	.
=54	=54	=54	=54	=54	=54	=54	=54	=54	=54	=54	=54	=54	=54	=54
2.r	2.c/	.	2.r	.	.	2.r	.	.	2.r	.	.	2.r	.	.
=55	=55	=55	=55	=55	=55	=55	=55	=55	=55	=55	=55	=55	=55	=55
!	!	!	!	!	!LO:DY:b:rj	!	!	!LO:DY:b:rj	!	!	!LO:DY:b:rj	!	!	!LO:DY:b:rj
2.E;>\ 2.G 2.B-	2.e;>\ 2.cc	.	2.C;>/	.	p	2.B-;>\	A-	p	2.e;>/	.	p	2.cc;>\	A-	p
=56	=56	=56	=56	=56	=56	=56	=56	=56	=56	=56	=56	=56	=56	=56
4.F;>\ 4.A	4.f;>/	.	4.F;>\	.	.	4.A;>/	-men	.	4.f;>/	.	.	4.f;>/	-men	.
4r	4r	.	4r	.	.	4r	.	.	4r	.	.	4r	.	.
8r	8r	.	8r	.	.	8r	.	.	8r	.	.	8r	.	.
!!LO:LB:g=original
==	==	==	==	==	==	==	==	==	==	==	==	==	==	==
*-	*-	*-	*-	*-	*-	*-	*-	*-	*-	*-	*-	*-	*-	*-
!!!system-decoration: s1,s2,s3,s4[(s5,s6)]
!!!RDF**kern: < = below
!!!RDF**kern: > = above
!!!ENC: Marta Chmielewska
!!!END: 2021-05-27
!!!ENC: Marcin Jachim
!!!END: 2021-05-13
